wasmegg/rockets-tracker/src/badges/badge-19.svg

<svg xmlns="http://www.w3.org/2000/svg" xml:space="preserve" style="fill-rule:evenodd;clip-rule:evenodd;stroke-linejoin:round;stroke-miterlimit:2" viewBox="0 0 64 64"><path d="M.252-.032C.248-.046.235-.051.222-.049H.221l-.004.001-.012.001-.021.001-.023.001Q.164-.13.16-.216L.159-.314l.005-.098Q.17-.491.171-.57c0-.053-.003-.107.003-.16C.176-.744.162-.755.15-.755a.02.02 0 0 0-.022.014l-.002.003-.044.087-.024.042-.013.021-.008.01-.001.002-.004.004q-.013.018 0 .035c.009.009.027.011.035 0a.5.5 0 0 0 .055-.084v.089C.12-.466.113-.401.111-.336c-.003.097.006.194.001.291L.05-.046a.025.025 0 0 0-.025.024c0 .014.011.025.025.025l.082.001h.006a1 1 0 0 0 .097-.006c.013-.002.02-.018.017-.03" style="fill:#fff;fill-rule:nonzero" transform="matrix(56 0 0 56 14.836 53.028)"/><path d="m.305-.217.003-.099q-.001-.05.001-.099L.31-.491C.309-.512.312-.534.307-.555a.3.3 0 0 0-.001-.062.17.17 0 0 0-.053-.113.14.14 0 0 0-.064-.024.12.12 0 0 0-.07.019.2.2 0 0 0-.083.119.3.3 0 0 0-.009.113.14.14 0 0 0 .036.091l.001.001c.033.04.093.066.143.051a.1.1 0 0 0 .052-.034v.025q0 .098-.005.197l-.007.148c0 .013.01.025.023.025a.025.025 0 0 0 .026-.024zm-.053-.28-.001.003-.002.008-.004.018-.005.015-.002.003-.004.008-.009.012-.002.003-.007.007-.006.005-.002.001-.005.003-.004.001-.002.001-.008.003-.004.001h-.01l-.01-.001H.163L.159-.407.14-.413.139-.414.135-.415.126-.422.118-.427.115-.429H.114V-.43L.11-.433Q.108-.438.102-.441L.101-.443v-.002L.097-.448.093-.453.091-.456.084-.468.083-.471.081-.479Q.076-.495.075-.51L.074-.514v-.025l.003-.033.001-.007v-.003l.003-.013q.003-.015.01-.029L.093-.63l.002-.004.009-.016.009-.013.004-.005.005-.005.012-.011L.14-.69l.001-.001.002-.001L.157-.7l.006-.002.005-.002.007-.001.001-.001h.001l.016.002h.003l.007.002.007.003.002.001.011.007.001.001.005.005.007.007.003.005.003.006.007.014.002.007.006.03.001.007v.002l.002.015-.002.038v.001l-.003.021q0 .017-.003.035" style="fill:#fff;fill-rule:nonzero" transform="matrix(56 0 0 56 30.404 53.028)"/></svg>

<?xml version="1.0" encoding="UTF-8" standalone="no"?>
<!DOCTYPE svg PUBLIC "-//W3C//DTD SVG 1.1//EN" "http://www.w3.org/Graphics/SVG/1.1/DTD/svg11.dtd">
<svg width="100%" height="100%" viewBox="0 0 64 64" version="1.1" xmlns="http://www.w3.org/2000/svg" xmlns:xlink="http://www.w3.org/1999/xlink" xml:space="preserve" xmlns:serif="http://www.serif.com/" style="fill-rule:evenodd;clip-rule:evenodd;stroke-linejoin:round;stroke-miterlimit:2;">
    <g transform="matrix(1,0,0,1,-15.9701,22.0157)">
        <g transform="matrix(56,0,0,56,30.8061,31.0123)">
            <path d="M0.252,-0.032C0.248,-0.046 0.235,-0.051 0.222,-0.049L0.221,-0.049C0.221,-0.049 0.218,-0.048 0.217,-0.048C0.213,-0.048 0.209,-0.048 0.205,-0.047C0.198,-0.046 0.191,-0.046 0.184,-0.046C0.176,-0.045 0.168,-0.045 0.161,-0.045C0.164,-0.102 0.162,-0.159 0.16,-0.216C0.16,-0.249 0.159,-0.281 0.159,-0.314C0.16,-0.347 0.162,-0.38 0.164,-0.412C0.167,-0.465 0.171,-0.517 0.171,-0.57C0.171,-0.623 0.168,-0.677 0.174,-0.73C0.176,-0.744 0.162,-0.755 0.15,-0.755C0.139,-0.755 0.132,-0.749 0.128,-0.741C0.127,-0.74 0.127,-0.739 0.126,-0.738C0.111,-0.709 0.097,-0.68 0.082,-0.651C0.075,-0.637 0.067,-0.623 0.058,-0.609C0.054,-0.602 0.05,-0.595 0.045,-0.588C0.042,-0.585 0.04,-0.581 0.037,-0.578C0.037,-0.578 0.036,-0.577 0.036,-0.576C0.035,-0.574 0.034,-0.573 0.032,-0.572C0.024,-0.561 0.022,-0.547 0.032,-0.537C0.041,-0.528 0.059,-0.526 0.067,-0.537C0.088,-0.563 0.106,-0.591 0.122,-0.621C0.122,-0.591 0.123,-0.562 0.122,-0.532C0.12,-0.466 0.113,-0.401 0.111,-0.336C0.108,-0.239 0.117,-0.142 0.112,-0.045C0.091,-0.046 0.07,-0.046 0.05,-0.046C0.036,-0.046 0.025,-0.035 0.025,-0.022C0.025,-0.008 0.036,0.003 0.05,0.003C0.077,0.003 0.105,0.004 0.132,0.004L0.138,0.004C0.17,0.004 0.203,0.003 0.235,-0.002C0.248,-0.004 0.255,-0.02 0.252,-0.032Z" style="fill:white;fill-rule:nonzero;"/>
        </g>
        <g transform="matrix(56,0,0,56,46.3741,31.0123)">
            <path d="M0.305,-0.217L0.308,-0.316C0.308,-0.349 0.307,-0.382 0.309,-0.415C0.309,-0.44 0.31,-0.466 0.31,-0.491C0.309,-0.512 0.312,-0.534 0.307,-0.555C0.309,-0.575 0.309,-0.595 0.306,-0.617C0.302,-0.659 0.287,-0.701 0.253,-0.73C0.234,-0.744 0.212,-0.751 0.189,-0.754C0.165,-0.756 0.14,-0.748 0.119,-0.735C0.079,-0.708 0.048,-0.663 0.036,-0.616C0.027,-0.579 0.023,-0.541 0.027,-0.503C0.029,-0.468 0.04,-0.437 0.063,-0.412L0.064,-0.411C0.097,-0.371 0.157,-0.345 0.207,-0.36C0.229,-0.366 0.245,-0.379 0.259,-0.394L0.259,-0.369C0.26,-0.304 0.257,-0.238 0.254,-0.172C0.252,-0.123 0.249,-0.073 0.247,-0.024C0.247,-0.011 0.257,0.001 0.27,0.001C0.284,0.002 0.296,-0.01 0.296,-0.023C0.299,-0.087 0.302,-0.152 0.305,-0.217ZM0.252,-0.497C0.252,-0.496 0.251,-0.495 0.251,-0.494C0.25,-0.491 0.249,-0.488 0.249,-0.486C0.248,-0.48 0.247,-0.474 0.245,-0.468C0.243,-0.463 0.241,-0.458 0.24,-0.453C0.239,-0.452 0.239,-0.451 0.238,-0.45C0.237,-0.447 0.236,-0.445 0.234,-0.442C0.231,-0.437 0.228,-0.434 0.225,-0.43C0.224,-0.429 0.224,-0.428 0.223,-0.427L0.216,-0.42C0.214,-0.418 0.213,-0.417 0.21,-0.415C0.209,-0.415 0.208,-0.414 0.208,-0.414C0.206,-0.413 0.205,-0.412 0.203,-0.411C0.202,-0.411 0.2,-0.41 0.199,-0.41C0.199,-0.409 0.198,-0.409 0.197,-0.409C0.194,-0.408 0.192,-0.407 0.189,-0.406C0.188,-0.406 0.187,-0.406 0.185,-0.405L0.175,-0.405C0.172,-0.405 0.169,-0.406 0.165,-0.406L0.163,-0.406C0.162,-0.406 0.16,-0.407 0.159,-0.407C0.153,-0.408 0.146,-0.411 0.14,-0.413L0.139,-0.414C0.139,-0.414 0.136,-0.415 0.135,-0.415C0.132,-0.417 0.13,-0.419 0.126,-0.422C0.123,-0.423 0.121,-0.425 0.118,-0.427C0.117,-0.428 0.116,-0.429 0.115,-0.429L0.114,-0.429L0.114,-0.43C0.113,-0.431 0.111,-0.432 0.11,-0.433C0.108,-0.436 0.106,-0.439 0.102,-0.441C0.102,-0.442 0.101,-0.443 0.101,-0.443L0.101,-0.445C0.1,-0.446 0.099,-0.447 0.097,-0.448C0.095,-0.45 0.094,-0.451 0.093,-0.453C0.092,-0.454 0.091,-0.455 0.091,-0.456C0.088,-0.46 0.086,-0.464 0.084,-0.468C0.084,-0.469 0.084,-0.47 0.083,-0.471C0.082,-0.474 0.081,-0.476 0.081,-0.479C0.077,-0.489 0.076,-0.5 0.075,-0.51C0.074,-0.511 0.074,-0.512 0.074,-0.514L0.074,-0.539C0.075,-0.55 0.075,-0.561 0.077,-0.572C0.077,-0.574 0.078,-0.577 0.078,-0.579L0.078,-0.582C0.079,-0.587 0.08,-0.59 0.081,-0.595C0.084,-0.605 0.086,-0.615 0.091,-0.624C0.091,-0.625 0.092,-0.628 0.093,-0.63C0.093,-0.631 0.094,-0.633 0.095,-0.634C0.097,-0.639 0.1,-0.645 0.104,-0.65C0.107,-0.654 0.11,-0.658 0.113,-0.663C0.114,-0.664 0.116,-0.667 0.117,-0.668C0.118,-0.67 0.121,-0.671 0.122,-0.673C0.126,-0.677 0.13,-0.681 0.134,-0.684L0.14,-0.69C0.14,-0.69 0.141,-0.69 0.141,-0.691C0.142,-0.691 0.143,-0.692 0.143,-0.692C0.147,-0.695 0.153,-0.698 0.157,-0.7C0.158,-0.701 0.161,-0.701 0.163,-0.702C0.164,-0.703 0.166,-0.703 0.168,-0.704C0.17,-0.704 0.173,-0.705 0.175,-0.705L0.176,-0.706L0.177,-0.706C0.182,-0.706 0.188,-0.705 0.193,-0.704L0.196,-0.704C0.198,-0.703 0.201,-0.703 0.203,-0.702C0.205,-0.702 0.208,-0.701 0.21,-0.699C0.211,-0.699 0.212,-0.698 0.212,-0.698C0.216,-0.696 0.219,-0.694 0.223,-0.691L0.224,-0.69C0.226,-0.689 0.228,-0.687 0.229,-0.685C0.232,-0.683 0.234,-0.68 0.236,-0.678C0.236,-0.677 0.238,-0.674 0.239,-0.673C0.24,-0.671 0.242,-0.669 0.242,-0.667L0.249,-0.653C0.25,-0.651 0.251,-0.648 0.251,-0.646C0.254,-0.637 0.256,-0.627 0.257,-0.616C0.257,-0.614 0.258,-0.612 0.258,-0.609L0.258,-0.607C0.259,-0.602 0.259,-0.597 0.26,-0.592C0.26,-0.579 0.259,-0.567 0.258,-0.554L0.258,-0.553C0.257,-0.546 0.256,-0.538 0.255,-0.532C0.255,-0.52 0.253,-0.509 0.252,-0.497Z" style="fill:white;fill-rule:nonzero;"/>
        </g>
    </g>
</svg>
